public/images/tokens/usdc.svg

<svg width="24" height="24" viewBox="0 0 24 24" fill="none" xmlns="http://www.w3.org/2000/svg">
<path d="M12 24C18.6274 24 24 18.6274 24 12C24 5.37258 18.6274 0 12 0C5.37258 0 0 5.37258 0 12C0 18.6274 5.37258 24 12 24Z" fill="#2775C9"/>
<path d="M23.5 12C23.5 18.3513 18.3513 23.5 12 23.5C5.64873 23.5 0.5 18.3513 0.5 12C0.5 5.64873 5.64873 0.5 12 0.5C18.3513 0.5 23.5 5.64873 23.5 12Z" stroke="black" stroke-opacity="0.097"/>
<path fill-rule="evenodd" clip-rule="evenodd" d="M11.28 7.54458V6.79518C11.28 6.39753 11.6024 6.07518 12 6.07518C12.3976 6.07518 12.72 6.39753 12.72 6.79518V7.54198C14.0229 7.73815 14.9161 8.4789 15.1546 9.53435C15.2063 9.76325 15.0626 9.99074 14.8337 10.0424C14.803 10.0494 14.7716 10.0529 14.7401 10.0529L14.3506 10.0529C14.0354 10.0529 13.7486 9.87085 13.6144 9.58565C13.366 9.0576 12.7772 8.75354 11.9931 8.75354C11.0125 8.75354 10.3508 9.23479 10.3508 9.95666C10.3508 10.5342 10.79 10.871 11.8547 11.1237L12.8533 11.3523C14.6159 11.7553 15.3618 12.4832 15.3618 13.7766C15.3618 15.2098 14.3613 16.1791 12.72 16.4076V17.2752C12.72 17.6728 12.3976 17.9952 12 17.9952C11.6024 17.9952 11.28 17.6728 11.28 17.2752V16.4212C9.8262 16.2457 8.84433 15.4762 8.61369 14.2989C8.57574 14.1052 8.70201 13.9174 8.89572 13.8795C8.91835 13.875 8.94136 13.8728 8.96443 13.8728V13.8728L9.55574 13.8729C9.82337 13.8729 10.0671 14.0269 10.182 14.2686C10.4543 14.8411 11.1509 15.1963 12.0232 15.1963C13.0699 15.1963 13.7978 14.6789 13.7978 13.9571C13.7978 13.3314 13.3526 12.9705 12.2578 12.7118L11.1329 12.4471C9.5327 12.0802 8.77473 11.3102 8.77473 10.071C8.77473 8.73648 9.78205 7.77693 11.28 7.54458ZM3 12.0004C3 8.02903 5.59223 4.66081 9.18314 3.48306C9.40993 3.40868 9.65407 3.53223 9.72845 3.75902C9.74271 3.80249 9.74997 3.84794 9.74997 3.89369L9.74998 4.14735C9.74998 4.53401 9.51544 4.88202 9.15705 5.02715C6.39432 6.14592 4.44643 8.84655 4.44643 12.0004C4.44643 15.1527 6.39244 17.8522 9.15306 18.9719C9.5139 19.1183 9.74998 19.4688 9.74998 19.8582L9.74999 20.0697C9.74999 20.3233 9.54445 20.5288 9.29089 20.5288C9.24162 20.5288 9.19266 20.5209 9.14591 20.5054C5.57432 19.3166 3 15.9579 3 12.0004ZM21 12.0004C21 15.9486 18.4379 19.3007 14.8794 20.4969C14.6295 20.5809 14.3589 20.4464 14.2749 20.1965C14.2584 20.1475 14.25 20.0961 14.25 20.0444L14.25 19.8749C14.25 19.4761 14.4914 19.117 14.8606 18.9664C17.614 17.8433 19.5536 15.1474 19.5536 12.0004C19.5536 8.85623 17.6176 6.16252 14.8684 5.03751C14.4944 4.88445 14.25 4.52044 14.25 4.11631L14.25 3.96178C14.25 3.69598 14.4655 3.48051 14.7313 3.48051C14.7835 3.48051 14.8354 3.48902 14.8849 3.50569C18.4405 4.70347 21 8.05417 21 12.0004Z" fill="white"/>
</svg>

<svg xmlns="http://www.w3.org/2000/svg" width="24" height="24" fill="none"><path fill="#2775C9" d="M12 24c6.627 0 12-5.373 12-12S18.627 0 12 0 0 5.373 0 12s5.373 12 12 12"/><path stroke="#000" stroke-opacity=".097" d="M23.5 12c0 6.351-5.149 11.5-11.5 11.5S.5 18.351.5 12 5.649.5 12 .5 23.5 5.649 23.5 12Z"/><path fill="#fff" fill-rule="evenodd" d="M11.28 7.545v-.75a.72.72 0 0 1 1.44 0v.747c1.303.196 2.196.937 2.435 1.992a.425.425 0 0 1-.415.519h-.39a.81.81 0 0 1-.736-.467c-.248-.528-.837-.832-1.62-.832-.982 0-1.643.48-1.643 1.203 0 .577.439.914 1.504 1.167l.998.228c1.763.403 2.509 1.131 2.509 2.425 0 1.433-1 2.402-2.642 2.63v.868a.72.72 0 0 1-1.44 0v-.854c-1.454-.175-2.436-.945-2.666-2.122a.357.357 0 0 1 .35-.426h.592c.267 0 .511.154.626.396.272.572.969.927 1.841.927 1.047 0 1.775-.517 1.775-1.239 0-.626-.445-.987-1.54-1.245l-1.125-.265c-1.6-.367-2.358-1.137-2.358-2.376 0-1.335 1.007-2.294 2.505-2.526M3 12c0-3.97 2.592-7.34 6.183-8.517a.432.432 0 0 1 .567.41v.254a.95.95 0 0 1-.593.88C6.394 6.146 4.447 8.847 4.447 12s1.945 5.852 4.706 6.972c.36.146.597.497.597.886v.212a.46.46 0 0 1-.604.435C5.574 19.317 3 15.958 3 12m18 0c0 3.949-2.562 7.3-6.12 8.497a.477.477 0 0 1-.63-.453v-.17c0-.398.241-.757.61-.908 2.754-1.123 4.694-3.819 4.694-6.966 0-3.144-1.936-5.837-4.686-6.962a.995.995 0 0 1-.618-.922v-.154a.48.48 0 0 1 .635-.456C18.44 4.703 21 8.054 21 12" clip-rule="evenodd"/></svg>
